docs/brand/mozz_logo.svg

<svg xmlns="http://www.w3.org/2000/svg" width="32" height="32" fill="none"><path fill="#f50031" d="M12 3h8v1h2v1h2v1h1v1h1l1 1v2h1v2h1v8h-1v2h-1v2h-1v1h-1v1h-1v1h-2v1h-2v1h-8v-1h-2v-1H8v-1H7v-1H6v-1H5v-2H4v-2H3v-8h1v-2h1V8h1V7h1V6h1V5h2V4h2z"/><path fill="#000" d="M12 2h8v1h-8zM20 3h2v1h-2zM22 4h2v1h-2zM24 5h1v1h-1zM25 6h1v1h-1zM26 7h1v1h-1zM27 8h1v2h-1zM28 10h1v2h-1zM29 12h1v8h-1zM28 20h1v2h-1zM27 22h1v2h-1zM26 24h1v1h-1zM25 25h1v1h-1zM24 26h1v1h-1zM22 27h2v1h-2zM20 28h2v1h-2zM10 28h2v1h-2zM8 27h2v1H8zM7 26h1v1H7zM6 25h1v1H6zM5 24h1v1H5zM4 22h1v2H4zM3 20h1v2H3zM2 12h1v8H2zM3 10h1v2H3zM4 8h1v2H4zM5 7h1v1H5zM6 6h1v1H6zM7 5h1v1H7zM8 4h2v1H8zM10 3h2v1h-2zM12 29h8v1h-8z"/><g opacity=".63"><path fill="#ffc2ce" d="M20 11h1v1h-1zM21 10h1v1h-1zM22 9h1v1h-1zM23 8h1v1h-1zM24 6h1v1h-1zM24 7h1v1h-1zM24 8h1v1h-1zM23 9h1v1h-1zM22 10h1v1h-1zM21 11h1v1h-1zM21 12h2v1h-2zM20 13h2v1h-2zM19 14h2v1h-2zM22 11h1v1h-1zM23 10h1v1h-1zM24 9h1v1h-1zM25 7h1v1h-1zM25 8h1v1h-1zM26 8h1v1h-1zM25 9h2v1h-2zM24 10h4v1h-4zM23 11h1v1h-1zM23 12h2v1h-2zM24 11h4v1h-4zM21 9h1v1h-1zM22 8h1v1h-1zM23 7h1v1h-1zM23 6h1v1h-1zM21 4h1v5h-1z"/><path fill="#ffc2ce" d="M22 5h1v5h-1zM20 5h1v2h-1zM19 7h1v2h-1zM20 7h1v3h-1z"/><path fill="#ffc2ce" d="M19 8h1v3h-1zM20 9h1v3h-1z"/><path fill="#ffc2ce" d="M19 9h1v3h-1z"/><path fill="#f03" d="M20 8h1v2h-1zM19 10h1v1h-1zM21 6h1v2h-1zM22 5h1v1h-1z"/><path fill="#ffc2ce" d="M23 5h1v1h-1zM18 9h1v3h-1z"/></g><g opacity=".63"><path fill="#ffc2ce" d="M12 21h-1v-1h1zM11 22h-1v-1h1zM10 23H9v-1h1zM9 24H8v-1h1zM8 26H7v-1h1zM8 25H7v-1h1zM8 24H7v-1h1zM9 23H8v-1h1zM10 22H9v-1h1zM11 21h-1v-1h1zM12 20H9v-1h3zM12 19H9v-1h3zM10 21H9v-1h1zM9 22H8v-1h1zM8 23H7v-1h1zM7 25H6v-1h1zM7 24H6v-1h1zM6 24H5v-1h1zM7 23H5v-1h2zM8 22H4v-1h4zM9 21H8v-1h1zM9 20H7v-1h2zM8 21H4v-1h4zM11 23h-1v-1h1zM10 24H9v-1h1zM9 25H8v-1h1zM9 26H8v-1h1zM11 28h-1v-5h1z"/><path fill="#ffc2ce" d="M10 27H9v-5h1zM12 27h-1v-2h1zM13 25h-1v-2h1zM12 25h-1v-3h1z"/><path fill="#ffc2ce" d="M13 24h-1v-3h1zM12 23h-1v-3h1z"/><path fill="#ffc2ce" d="M13 23h-1v-3h1z"/><path fill="#f03" d="M12 24h-1v-2h1zM13 22h-1v-1h1zM11 26h-1v-2h1zM10 27H9v-1h1z"/><path fill="#ffc2ce" d="M9 27H8v-1h1zM14 23h-1v-3h1z"/></g><path fill="#000" d="M17 11h4v1h-4zM19 12h2v1h-2zM18 13h2v1h-2zM17 14h2v1h-2zM17 15h1v1h-1z"/><path fill="#000" d="M17 15h4v1h-4zM11 11h4v1h-4zM13 12h2v1h-2zM12 13h2v1h-2zM11 14h2v1h-2zM11 15h1v1h-1z"/><path fill="#000" d="M11 15h4v1h-4zM11 18h1v2h-1zM12 19h1v2h-1zM19 19h1v2h-1zM20 18h1v2h-1zM13 20h6v1h-6z"/><g opacity=".63"><path fill="#d6002b" d="M3 15h4v1H3zM3 16h8v1H3zM3 17h5v1H3z"/><path fill="#a80022" d="M3 13h7v1H3zM3 12h3v1H3zM3 14h8v1H3zM7 15h4v1H7z"/><path fill="#d6002b" d="M16 7h1v4h-1zM14 3h1v7h-1zM13 3h1v2h-1z"/><path fill="#a80022" d="M12 3h1v4h-1zM13 5h1v5h-1zM14 9h1v2h-1z"/><path fill="#d6002b" d="M15 3h1v8h-1z"/><path fill="#c37676" d="M13 10h1v1h-1zM10 13h1v1h-1zM6 12h4v1H6zM4 11h4v1H4zM4 10h1v1H4z"/><path fill="#da7878" d="M12 10h1v1h-1zM9 5h1v2H9z"/><path fill="#eeb0b0" d="M8 5h1v2H8zM5 8h2v1H5zM7 9h1v1H7z"/><path fill="#eca6a6" d="M7 8h1v1H7zM6 7h1v1H6zM7 6h1v1H7zM7 7h1v1H7zM8 7h1v1H8zM8 8h2v2H8zM10 10h1v1h-1z"/><path fill="#eeb0b0" d="M9 10h1v1H9zM10 9h1v1h-1zM10 11h1v1h-1zM9 7h1v1H9z"/><path fill="#da7878" d="M10 6h1v3h-1zM8 10h1v2H8zM7 10h1v1H7zM9 11h1v1H9zM5 9h2v2H5z"/><path fill="#c37676" d="M12 7h1v3h-1zM11 4h1v4h-1zM10 4h1v2h-1z"/><path fill="#eeb0b0" d="M11 10h1v1h-1zM11 12h1v1h-1zM12 12h1v1h-1z"/><path fill="#da7878" d="M10 12h1v1h-1zM11 13h1v1h-1zM11 8h1v2h-1z"/><path fill="#c37676" d="M10 4h1v2h-1z"/></g><g opacity=".63"><path fill="#d6002b" d="M29 17h-4v-1h4zM29 16h-8v-1h8zM29 15h-5v-1h5z"/><path fill="#a80022" d="M29 19h-7v-1h7zM29 20h-3v-1h3zM29 18h-8v-1h8zM25 17h-4v-1h4z"/><path fill="#d6002b" d="M16 25h-1v-4h1zM18 29h-1v-7h1zM19 29h-1v-2h1z"/><path fill="#a80022" d="M20 29h-1v-4h1zM19 27h-1v-5h1zM18 23h-1v-2h1z"/><path fill="#d6002b" d="M17 29h-1v-8h1z"/><path fill="#c37676" d="M19 22h-1v-1h1zM22 19h-1v-1h1zM26 20h-4v-1h4zM28 21h-4v-1h4zM28 22h-1v-1h1z"/><path fill="#da7878" d="M20 22h-1v-1h1zM23 27h-1v-2h1z"/><path fill="#eeb0b0" d="M24 27h-1v-2h1zM27 24h-2v-1h2zM25 23h-1v-1h1z"/><path fill="#eca6a6" d="M25 24h-1v-1h1zM26 25h-1v-1h1zM25 26h-1v-1h1zM25 25h-1v-1h1zM24 25h-1v-1h1zM24 24h-2v-2h2zM22 22h-1v-1h1zM21 21h-1v-1h1z"/><path fill="#eeb0b0" d="M23 22h-1v-1h1zM22 23h-1v-1h1zM22 21h-1v-1h1zM23 25h-1v-1h1z"/><path fill="#da7878" d="M22 26h-1v-3h1zM24 22h-1v-2h1zM25 22h-1v-1h1zM23 21h-1v-1h1zM27 23h-2v-2h2z"/><path fill="#c37676" d="M20 25h-1v-3h1zM21 28h-1v-4h1zM22 28h-1v-2h1z"/><path fill="#eeb0b0" d="M21 22h-1v-1h1z"/><path fill="#da7878" d="M22 20h-1v-1h1zM21 24h-1v-2h1z"/><path fill="#c37676" d="M22 28h-1v-2h1z"/></g></svg>

<svg width="32" height="32" viewBox="0 0 32 32" fill="none" xmlns="http://www.w3.org/2000/svg">
<path d="M12 3H20V4H22V5H24V6H25V7H26L27 8V10H28V12H29V20H28V22H27V24H26V25H25V26H24V27H22V28H20V29H12V28H10V27H8V26H7V25H6V24H5V22H4V20H3V12H4V10H5V8H6V7H7V6H8V5H10V4H12V3Z" fill="#B00023"/>
<rect x="12" y="2" width="8" height="1" fill="#3E0606"/>
<rect x="20" y="3" width="2" height="1" fill="#3E0606"/>
<rect x="22" y="4" width="2" height="1" fill="#3E0606"/>
<rect x="24" y="5" width="1" height="1" fill="#3E0606"/>
<rect x="25" y="6" width="1" height="1" fill="#3E0606"/>
<rect x="26" y="7" width="1" height="1" fill="#3E0606"/>
<rect x="27" y="8" width="1" height="2" fill="#3E0606"/>
<rect x="28" y="10" width="1" height="2" fill="#3E0606"/>
<rect x="29" y="12" width="1" height="8" fill="#3E0606"/>
<rect x="28" y="20" width="1" height="2" fill="#3E0606"/>
<rect x="27" y="22" width="1" height="2" fill="#3E0606"/>
<rect x="26" y="24" width="1" height="1" fill="#3E0606"/>
<rect x="25" y="25" width="1" height="1" fill="#3E0606"/>
<rect x="24" y="26" width="1" height="1" fill="#3E0606"/>
<rect x="22" y="27" width="2" height="1" fill="#3E0606"/>
<rect x="20" y="28" width="2" height="1" fill="#3E0606"/>
<rect x="10" y="28" width="2" height="1" fill="#3E0606"/>
<rect x="8" y="27" width="2" height="1" fill="#3E0606"/>
<rect x="7" y="26" width="1" height="1" fill="#3E0606"/>
<rect x="6" y="25" width="1" height="1" fill="#3E0606"/>
<rect x="5" y="24" width="1" height="1" fill="#3E0606"/>
<rect x="4" y="22" width="1" height="2" fill="#3E0606"/>
<rect x="3" y="20" width="1" height="2" fill="#3E0606"/>
<rect x="2" y="12" width="1" height="8" fill="#3E0606"/>
<rect x="3" y="10" width="1" height="2" fill="#3E0606"/>
<rect x="4" y="8" width="1" height="2" fill="#3E0606"/>
<rect x="5" y="7" width="1" height="1" fill="#3E0606"/>
<rect x="6" y="6" width="1" height="1" fill="#3E0606"/>
<rect x="7" y="5" width="1" height="1" fill="#3E0606"/>
<rect x="8" y="4" width="2" height="1" fill="#3E0606"/>
<rect x="10" y="3" width="2" height="1" fill="#3E0606"/>
<rect x="12" y="29" width="8" height="1" fill="#3E0606"/>
<g opacity="0.63">
<rect x="20" y="11" width="1" height="1" fill="#721225"/>
<rect x="21" y="10" width="1" height="1" fill="#721225"/>
<rect x="22" y="9" width="1" height="1" fill="#721225"/>
<rect x="23" y="8" width="1" height="1" fill="#721225"/>
<rect x="24" y="6" width="1" height="1" fill="#721225"/>
<rect x="24" y="7" width="1" height="1" fill="#721225"/>
<rect x="24" y="8" width="1" height="1" fill="#721225"/>
<rect x="23" y="9" width="1" height="1" fill="#721225"/>
<rect x="22" y="10" width="1" height="1" fill="#721225"/>
<rect x="21" y="11" width="1" height="1" fill="#721225"/>
<rect x="21" y="12" width="2" height="1" fill="#721225"/>
<rect x="20" y="13" width="2" height="1" fill="#721225"/>
<rect x="19" y="14" width="2" height="1" fill="#721225"/>
<rect x="22" y="11" width="1" height="1" fill="#721225"/>
<rect x="23" y="10" width="1" height="1" fill="#721225"/>
<rect x="24" y="9" width="1" height="1" fill="#721225"/>
<rect x="25" y="7" width="1" height="1" fill="#721225"/>
<rect x="25" y="8" width="1" height="1" fill="#721225"/>
<rect x="26" y="8" width="1" height="1" fill="#721225"/>
<rect x="25" y="9" width="2" height="1" fill="#721225"/>
<rect x="24" y="10" width="4" height="1" fill="#721225"/>
<rect x="23" y="11" width="1" height="1" fill="#721225"/>
<rect x="23" y="12" width="2" height="1" fill="#721225"/>
<rect x="24" y="11" width="4" height="1" fill="#721225"/>
<rect x="21" y="9" width="1" height="1" fill="#721225"/>
<rect x="22" y="8" width="1" height="1" fill="#721225"/>
<rect x="23" y="7" width="1" height="1" fill="#721225"/>
<rect x="23" y="6" width="1" height="1" fill="#721225"/>
<rect x="21" y="4" width="1" height="5" fill="#721225"/>
<rect x="22" y="5" width="1" height="5" fill="#721225"/>
<rect x="20" y="5" width="1" height="2" fill="#721225"/>
<rect x="19" y="7" width="1" height="2" fill="#721225"/>
<rect x="20" y="7" width="1" height="3" fill="#721225"/>
<rect x="19" y="8" width="1" height="3" fill="#721225"/>
<rect x="20" y="9" width="1" height="3" fill="#721225"/>
<rect x="19" y="9" width="1" height="3" fill="#721225"/>
<rect x="20" y="8" width="1" height="2" fill="#CA0028"/>
<rect x="19" y="10" width="1" height="1" fill="#CA0028"/>
<rect x="21" y="6" width="1" height="2" fill="#CA0028"/>
<rect x="22" y="5" width="1" height="1" fill="#CA0028"/>
<rect x="23" y="5" width="1" height="1" fill="#721225"/>
<rect x="18" y="9" width="1" height="3" fill="#721225"/>
</g>
<g opacity="0.63">
<rect x="12" y="21" width="1" height="1" transform="rotate(180 12 21)" fill="#721225"/>
<rect x="11" y="22" width="1" height="1" transform="rotate(180 11 22)" fill="#721225"/>
<rect x="10" y="23" width="1" height="1" transform="rotate(180 10 23)" fill="#721225"/>
<rect x="9" y="24" width="1" height="1" transform="rotate(180 9 24)" fill="#721225"/>
<rect x="8" y="26" width="1" height="1" transform="rotate(180 8 26)" fill="#721225"/>
<rect x="8" y="25" width="1" height="1" transform="rotate(180 8 25)" fill="#721225"/>
<rect x="8" y="24" width="1" height="1" transform="rotate(180 8 24)" fill="#721225"/>
<rect x="9" y="23" width="1" height="1" transform="rotate(180 9 23)" fill="#721225"/>
<rect x="10" y="22" width="1" height="1" transform="rotate(180 10 22)" fill="#721225"/>
<rect x="11" y="21" width="1" height="1" transform="rotate(180 11 21)" fill="#721225"/>
<rect x="12" y="20" width="3" height="1" transform="rotate(180 12 20)" fill="#721225"/>
<rect x="12" y="19" width="3" height="1" transform="rotate(180 12 19)" fill="#721225"/>
<rect x="10" y="21" width="1" height="1" transform="rotate(180 10 21)" fill="#721225"/>
<rect x="9" y="22" width="1" height="1" transform="rotate(180 9 22)" fill="#721225"/>
<rect x="8" y="23" width="1" height="1" transform="rotate(180 8 23)" fill="#721225"/>
<rect x="7" y="25" width="1" height="1" transform="rotate(180 7 25)" fill="#721225"/>
<rect x="7" y="24" width="1" height="1" transform="rotate(180 7 24)" fill="#721225"/>
<rect x="6" y="24" width="1" height="1" transform="rotate(180 6 24)" fill="#721225"/>
<rect x="7" y="23" width="2" height="1" transform="rotate(180 7 23)" fill="#721225"/>
<rect x="8" y="22" width="4" height="1" transform="rotate(180 8 22)" fill="#721225"/>
<rect x="9" y="21" width="1" height="1" transform="rotate(180 9 21)" fill="#721225"/>
<rect x="9" y="20" width="2" height="1" transform="rotate(180 9 20)" fill="#721225"/>
<rect x="8" y="21" width="4" height="1" transform="rotate(180 8 21)" fill="#721225"/>
<rect x="11" y="23" width="1" height="1" transform="rotate(180 11 23)" fill="#721225"/>
<rect x="10" y="24" width="1" height="1" transform="rotate(180 10 24)" fill="#721225"/>
<rect x="9" y="25" width="1" height="1" transform="rotate(180 9 25)" fill="#721225"/>
<rect x="9" y="26" width="1" height="1" transform="rotate(180 9 26)" fill="#721225"/>
<rect x="11" y="28" width="1" height="5" transform="rotate(180 11 28)" fill="#721225"/>
<rect x="10" y="27" width="1" height="5" transform="rotate(180 10 27)" fill="#721225"/>
<rect x="12" y="27" width="1" height="2" transform="rotate(180 12 27)" fill="#721225"/>
<rect x="13" y="25" width="1" height="2" transform="rotate(180 13 25)" fill="#721225"/>
<rect x="12" y="25" width="1" height="3" transform="rotate(180 12 25)" fill="#721225"/>
<rect x="13" y="24" width="1" height="3" transform="rotate(180 13 24)" fill="#721225"/>
<rect x="12" y="23" width="1" height="3" transform="rotate(180 12 23)" fill="#721225"/>
<rect x="13" y="23" width="1" height="3" transform="rotate(180 13 23)" fill="#721225"/>
<rect x="12" y="24" width="1" height="2" transform="rotate(180 12 24)" fill="#CA0028"/>
<rect x="13" y="22" width="1" height="1" transform="rotate(180 13 22)" fill="#CA0028"/>
<rect x="11" y="26" width="1" height="2" transform="rotate(180 11 26)" fill="#CA0028"/>
<rect x="10" y="27" width="1" height="1" transform="rotate(180 10 27)" fill="#CA0028"/>
<rect x="9" y="27" width="1" height="1" transform="rotate(180 9 27)" fill="#721225"/>
<rect x="14" y="23" width="1" height="3" transform="rotate(180 14 23)" fill="#721225"/>
</g>
<g opacity="0.63">
<rect x="3" y="16" width="5" height="1" fill="#D6002B"/>
<rect x="3" y="13" width="7" height="1" fill="#A80022"/>
<rect x="3" y="12" width="3" height="1" fill="#A80022"/>
<rect x="3" y="14" width="8" height="1" fill="#A80022"/>
<rect x="7" y="15" width="4" height="1" fill="#A80022"/>
<rect x="3" y="15" width="8" height="1" fill="#D6002B"/>
<rect x="3" y="14" width="4" height="1" fill="#D6002B"/>
<rect x="3" y="17" width="2" height="1" fill="#D6002B"/>
<rect x="16" y="7" width="1" height="4" fill="#D6002B"/>
<rect x="14" y="3" width="1" height="7" fill="#D6002B"/>
<rect x="13" y="3" width="1" height="2" fill="#D6002B"/>
<rect x="12" y="3" width="1" height="4" fill="#A80022"/>
<rect x="13" y="5" width="1" height="5" fill="#A80022"/>
<rect x="14" y="9" width="1" height="2" fill="#A80022"/>
<rect x="15" y="3" width="1" height="8" fill="#D6002B"/>
<rect x="13" y="10" width="1" height="1" fill="#860000"/>
<rect x="10" y="13" width="1" height="1" fill="#860000"/>
<rect x="6" y="12" width="4" height="1" fill="#860000"/>
<rect x="4" y="11" width="4" height="1" fill="#860000"/>
<rect x="4" y="10" width="1" height="1" fill="#860000"/>
<rect x="12" y="10" width="1" height="1" fill="#730D0D"/>
<rect x="9" y="5" width="1" height="2" fill="#730D0D"/>
<rect x="8" y="5" width="1" height="2" fill="#671212"/>
<rect x="5" y="8" width="2" height="1" fill="#671212"/>
<rect x="7" y="9" width="1" height="1" fill="#671212"/>
<rect x="7" y="8" width="1" height="1" fill="#400000"/>
<rect x="6" y="7" width="1" height="1" fill="#400000"/>
<rect x="7" y="6" width="1" height="1" fill="#400000"/>
<rect x="7" y="7" width="1" height="1" fill="#400000"/>
<rect x="8" y="7" width="1" height="1" fill="#400000"/>
<rect x="8" y="8" width="2" height="2" fill="#400000"/>
<rect x="10" y="10" width="1" height="1" fill="#400000"/>
<rect x="9" y="10" width="1" height="1" fill="#671212"/>
<rect x="10" y="9" width="1" height="1" fill="#671212"/>
<rect x="10" y="11" width="1" height="1" fill="#671212"/>
<rect x="9" y="7" width="1" height="1" fill="#671212"/>
<rect x="10" y="6" width="1" height="3" fill="#730D0D"/>
<rect x="8" y="10" width="1" height="2" fill="#730D0D"/>
<rect x="7" y="10" width="1" height="1" fill="#730D0D"/>
<rect x="9" y="11" width="1" height="1" fill="#730D0D"/>
<rect x="5" y="9" width="2" height="2" fill="#730D0D"/>
<rect x="12" y="7" width="1" height="3" fill="#860000"/>
<rect x="11" y="4" width="1" height="4" fill="#860000"/>
<rect x="10" y="4" width="1" height="2" fill="#860000"/>
<rect x="11" y="10" width="1" height="1" fill="#671212"/>
<rect x="11" y="12" width="1" height="1" fill="#671212"/>
<rect x="12" y="12" width="1" height="1" fill="#671212"/>
<rect x="10" y="12" width="1" height="1" fill="#730D0D"/>
<rect x="11" y="13" width="1" height="1" fill="#730D0D"/>
<rect x="11" y="8" width="1" height="2" fill="#730D0D"/>
<rect x="10" y="4" width="1" height="2" fill="#860000"/>
</g>
<g opacity="0.63">
<rect x="29" y="17" width="4" height="1" transform="rotate(180 29 17)" fill="#D6002B"/>
<rect x="29" y="16" width="8" height="1" transform="rotate(180 29 16)" fill="#D6002B"/>
<rect x="29" y="15" width="5" height="1" transform="rotate(180 29 15)" fill="#D6002B"/>
<rect x="29" y="19" width="7" height="1" transform="rotate(180 29 19)" fill="#A80022"/>
<rect x="29" y="20" width="3" height="1" transform="rotate(180 29 20)" fill="#A80022"/>
<rect x="29" y="18" width="8" height="1" transform="rotate(180 29 18)" fill="#A80022"/>
<rect x="25" y="17" width="4" height="1" transform="rotate(180 25 17)" fill="#A80022"/>
<rect x="16" y="25" width="1" height="4" transform="rotate(180 16 25)" fill="#D6002B"/>
<rect x="18" y="29" width="1" height="7" transform="rotate(180 18 29)" fill="#D6002B"/>
<rect x="19" y="29" width="1" height="2" transform="rotate(180 19 29)" fill="#D6002B"/>
<rect x="20" y="29" width="1" height="4" transform="rotate(180 20 29)" fill="#A80022"/>
<rect x="19" y="27" width="1" height="5" transform="rotate(180 19 27)" fill="#A80022"/>
<rect x="18" y="23" width="1" height="2" transform="rotate(180 18 23)" fill="#A80022"/>
<rect x="17" y="29" width="1" height="8" transform="rotate(180 17 29)" fill="#D6002B"/>
<rect x="19" y="22" width="1" height="1" transform="rotate(180 19 22)" fill="#860000"/>
<rect x="22" y="19" width="1" height="1" transform="rotate(180 22 19)" fill="#860000"/>
<rect x="26" y="20" width="4" height="1" transform="rotate(180 26 20)" fill="#860000"/>
<rect x="28" y="21" width="4" height="1" transform="rotate(180 28 21)" fill="#860000"/>
<rect x="28" y="22" width="1" height="1" transform="rotate(180 28 22)" fill="#860000"/>
<rect x="20" y="22" width="1" height="1" transform="rotate(180 20 22)" fill="#730D0D"/>
<rect x="23" y="27" width="1" height="2" transform="rotate(180 23 27)" fill="#730D0D"/>
<rect x="24" y="27" width="1" height="2" transform="rotate(180 24 27)" fill="#671212"/>
<rect x="27" y="24" width="2" height="1" transform="rotate(180 27 24)" fill="#671212"/>
<rect x="25" y="23" width="1" height="1" transform="rotate(180 25 23)" fill="#671212"/>
<rect x="25" y="24" width="1" height="1" transform="rotate(180 25 24)" fill="#400000"/>
<rect x="26" y="25" width="1" height="1" transform="rotate(180 26 25)" fill="#400000"/>
<rect x="25" y="26" width="1" height="1" transform="rotate(180 25 26)" fill="#400000"/>
<rect x="25" y="25" width="1" height="1" transform="rotate(180 25 25)" fill="#400000"/>
<rect x="24" y="25" width="1" height="1" transform="rotate(180 24 25)" fill="#400000"/>
<rect x="24" y="24" width="2" height="2" transform="rotate(180 24 24)" fill="#400000"/>
<rect x="22" y="22" width="1" height="1" transform="rotate(180 22 22)" fill="#400000"/>
<rect x="21" y="21" width="1" height="1" transform="rotate(180 21 21)" fill="#400000"/>
<rect x="23" y="22" width="1" height="1" transform="rotate(180 23 22)" fill="#671212"/>
<rect x="22" y="23" width="1" height="1" transform="rotate(180 22 23)" fill="#671212"/>
<rect x="22" y="21" width="1" height="1" transform="rotate(180 22 21)" fill="#671212"/>
<rect x="23" y="25" width="1" height="1" transform="rotate(180 23 25)" fill="#671212"/>
<rect x="22" y="26" width="1" height="3" transform="rotate(180 22 26)" fill="#730D0D"/>
<rect x="24" y="22" width="1" height="2" transform="rotate(180 24 22)" fill="#730D0D"/>
<rect x="25" y="22" width="1" height="1" transform="rotate(180 25 22)" fill="#730D0D"/>
<rect x="23" y="21" width="1" height="1" transform="rotate(180 23 21)" fill="#730D0D"/>
<rect x="27" y="23" width="2" height="2" transform="rotate(180 27 23)" fill="#730D0D"/>
<rect x="20" y="25" width="1" height="3" transform="rotate(180 20 25)" fill="#860000"/>
<rect x="21" y="28" width="1" height="4" transform="rotate(180 21 28)" fill="#860000"/>
<rect x="22" y="28" width="1" height="2" transform="rotate(180 22 28)" fill="#860000"/>
<rect x="21" y="22" width="1" height="1" transform="rotate(180 21 22)" fill="#671212"/>
<rect x="22" y="20" width="1" height="1" transform="rotate(180 22 20)" fill="#730D0D"/>
<rect x="21" y="24" width="1" height="2" transform="rotate(180 21 24)" fill="#730D0D"/>
<rect x="22" y="28" width="1" height="2" transform="rotate(180 22 28)" fill="#860000"/>
</g>
<path d="M12 19H13V20H19V19H20V18H21V20H20V21H19V22H13V21H12V20H11V18H12V19ZM15 13H14V14H13V15H15V16H11V14H12V13H13V12H11V11H15V13ZM21 13H20V14H19V15H21V16H17V14H18V13H19V12H17V11H21V13Z" fill="white"/>
</svg>
